src/22/panel/indicator-sensors-chip.svg

<svg xmlns="http://www.w3.org/2000/svg" width="22" height="22" version="1.1">
 <defs>
  <style id="current-color-scheme" type="text/css">
   .ColorScheme-Text { color:#d3dae3; } .ColorScheme-Highlight { color:#4285f4; }
  </style>
 </defs>
 <path style="fill:currentColor" class="ColorScheme-Text" d="m 17.75,4.999976 c 0.1385,0 0.25,0.1115 0.25,0.25 l 0,0.5 c 0,0.1385 -0.1115,0.25 -0.25,0.25 l -1.75,0 0,-1 1.75,0 z m 0,2 c 0.1385,0 0.25,0.1115 0.25,0.25 l 0,0.5 c 0,0.1385 -0.1115,0.25 -0.25,0.25 l -1.75,0 0,-1 1.75,0 z m 0,2 c 0.1385,0 0.25,0.1115 0.25,0.25 l 0,0.5 c 0,0.1385 -0.1115,0.25 -0.25,0.25 l -1.75,0 0,-1 1.75,0 z m 0,2 c 0.1385,0 0.25,0.1115 0.25,0.25 l 0,0.5 c 0,0.1385 -0.1115,0.25 -0.25,0.25 l -1.75,0 0,-1 1.75,0 z m 0,2 c 0.1385,0 0.25,0.1115 0.25,0.25 l 0,0.5 c 0,0.1385 -0.1115,0.25 -0.25,0.25 l -1.75,0 0,-1 1.75,0 z m 0,2 c 0.1385,0 0.25,0.1115 0.25,0.25 l 0,0.5 c 0,0.1385 -0.1115,0.25 -0.25,0.25 l -1.75,0 0,-1 1.75,0 z m 0,2 c 0.1385,0 0.25,0.1115 0.25,0.25 l 0,0.5 c 0,0.1385 -0.1115,0.25 -0.25,0.25 l -1.75,0 0,-1 1.75,0 z m -13.5,-12 c -0.1385,0 -0.25,0.1115 -0.25,0.25 l 0,0.5 c 0,0.1385 0.1115,0.25 0.25,0.25 l 1.75,0 0,-1 -1.75,0 z m 0,2 c -0.1385,0 -0.25,0.1115 -0.25,0.25 l 0,0.5 c 0,0.1385 0.1115,0.25 0.25,0.25 l 1.75,0 0,-1 -1.75,0 z m 0,2 c -0.1385,0 -0.25,0.1115 -0.25,0.25 l 0,0.5 c 0,0.1385 0.1115,0.25 0.25,0.25 l 1.75,0 0,-1 -1.75,0 z m 0,2 c -0.1385,0 -0.25,0.1115 -0.25,0.25 l 0,0.5 c 0,0.1385 0.1115,0.25 0.25,0.25 l 1.75,0 0,-1 -1.75,0 z m 0,2 c -0.1385,0 -0.25,0.1115 -0.25,0.25 l 0,0.5 c 0,0.1385 0.1115,0.25 0.25,0.25 l 1.75,0 0,-1 -1.75,0 z m 0,2 c -0.1385,0 -0.25,0.1115 -0.25,0.25 l 0,0.5 c 0,0.1385 0.1115,0.25 0.25,0.25 l 1.75,0 0,-1 -1.75,0 z m 0,2 c -0.1385,0 -0.25,0.1115 -0.25,0.25 l 0,0.5 c 0,0.1385 0.1115,0.25 0.25,0.25 l 1.75,0 0,-1 -1.75,0 z M 8,4.0000003 l 6,0 c 0.554,0 1,0.446 1,1 L 15,18 c 0,0.554 -0.446,1 -1,1 L 8,19 C 7.446,19 7,18.554 7,18 L 7,5.0000003 c 0,-0.554 0.446,-1 1,-1 z"/>
</svg>

<svg xmlns="http://www.w3.org/2000/svg" width="22" height="22"><defs><style id="current-color-scheme" type="text/css"></style></defs><path d="M17.75 5a.25.25 0 0 1 .25.25v.5a.25.25 0 0 1-.25.25H16V5h1.75zm0 2a.25.25 0 0 1 .25.25v.5a.25.25 0 0 1-.25.25H16V7h1.75zm0 2a.25.25 0 0 1 .25.25v.5a.25.25 0 0 1-.25.25H16V9h1.75zm0 2a.25.25 0 0 1 .25.25v.5a.25.25 0 0 1-.25.25H16v-1h1.75zm0 2a.25.25 0 0 1 .25.25v.5a.25.25 0 0 1-.25.25H16v-1h1.75zm0 2a.25.25 0 0 1 .25.25v.5a.25.25 0 0 1-.25.25H16v-1h1.75zm0 2a.25.25 0 0 1 .25.25v.5a.25.25 0 0 1-.25.25H16v-1h1.75zM4.25 5a.25.25 0 0 0-.25.25v.5c0 .138.112.25.25.25H6V5H4.25zm0 2a.25.25 0 0 0-.25.25v.5c0 .138.112.25.25.25H6V7H4.25zm0 2a.25.25 0 0 0-.25.25v.5c0 .138.112.25.25.25H6V9H4.25zm0 2a.25.25 0 0 0-.25.25v.5c0 .138.112.25.25.25H6v-1H4.25zm0 2a.25.25 0 0 0-.25.25v.5c0 .138.112.25.25.25H6v-1H4.25zm0 2a.25.25 0 0 0-.25.25v.5c0 .138.112.25.25.25H6v-1H4.25zm0 2a.25.25 0 0 0-.25.25v.5c0 .138.112.25.25.25H6v-1H4.25zM8 4h6c.554 0 1 .446 1 1v13c0 .554-.446 1-1 1H8c-.554 0-1-.446-1-1V5c0-.554.446-1 1-1z" fill="currentColor" color="#323232"/></svg>
